X:12
T:Flatwater Fran
R:waltz
C:Phil Cunningham, Scotland
Z:id:hn-waltz-12
M:3/4
L:1/8
K:G
DE | G2G2DE | G2G2Bd | e2d2G2 | B4DE | G2G2DE | A2A2GA | B2AGED | E4
DE | G2G2DE | G2G2Bd | e2d2g2 | B4dB | A2AGAB | AGE2GE | DEG2G2 | G4 :| 
|: Bd | e2d2G2 | B4Bd | e2d2G2 | B4Bd | e2d2g2 | B2dBAG | A2AGAB | A4
Bd | e2d2g2 | B2dBAG | A2d3c | B4AG | EAAGAB | AGE2GE | DEG2G2 | G4 :|

